X:1
T:Het Koffielied
C:Richel Bilderbeek
L:1/4
Q:1/4=216
M:4/4
K:Fmaj
   c2 A B | c2  z c     | d    e   f   d   | c2    z c  |
w: c  A M | P     daar- | mee  ben je  te- | vree,   en |
   d e f  d    | c B A  c    |
w: A M P, door | P D E, daar |
   B   A  G    B   | A    G    F2  |
w: ben je niet te- | vre- den  mee |
